web/themes/custom/surf_main/images/icons/ui-icon-bag.svg

<svg fill="none" height="28" viewBox="0 0 28 28" width="28" xmlns="http://www.w3.org/2000/svg"><g stroke="#222" stroke-width="1.5"><path d="m4.66666 10.8889h18.66664v11c0 1.6568-1.3431 3-3 3h-12.66664c-1.65685 0-3-1.3432-3-3z"/><path d="m7.77778 9.33334c0-3.43644 2.78582-6.22223 6.22222-6.22223 3.4364 0 6.2222 2.78579 6.2222 6.22223v1.55556h-12.44442z"/><path d="m9.33333 15.5556h9.33337"/></g></svg>

<svg width="28" height="28" viewBox="0 0 28 28" fill="none" xmlns="http://www.w3.org/2000/svg">
<path d="M4.66666 10.8889H23.3333V21.8889C23.3333 23.5457 21.9902 24.8889 20.3333 24.8889H7.66666C6.00981 24.8889 4.66666 23.5457 4.66666 21.8889V10.8889Z" stroke="#222222" stroke-width="1.5"/>
<path d="M7.77778 9.33334C7.77778 5.8969 10.5636 3.11111 14 3.11111V3.11111C17.4364 3.11111 20.2222 5.8969 20.2222 9.33334V10.8889H7.77778V9.33334Z" stroke="#222222" stroke-width="1.5"/>
<path d="M9.33333 15.5556H18.6667" stroke="#222222" stroke-width="1.5"/>
</svg>
